svgs/sharp-solid/microwave.svg

<svg xmlns="http://www.w3.org/2000/svg" viewBox="0 0 576 512"><!--! Font Awesome Pro 6.6.0 by @fontawesome - https://fontawesome.com License - https://fontawesome.com/license (Commercial License) Copyright 2024 Fonticons, Inc. --><path d="M0 32l576 0 0 416-64 0 0 32-64 0 0-32-320 0 0 32-64 0 0-32L0 448 0 32zm96 96l0 224 320 0 0-224L96 128zm416-16l-32 0 0 256 32 0 0-256z"/></svg>

<svg xmlns="http://www.w3.org/2000/svg" viewBox="0 0 576 512"><!--! Font Awesome Pro 6.4.2 by @fontawesome - https://fontawesome.com License - https://fontawesome.com/license (Commercial License) Copyright 2023 Fonticons, Inc. --><path d="M0 32H576V448H512v32H448V448H128v32H64V448H0V32zm96 96V352H416V128H96zm416-16H480V368h32V112z"/></svg>
